elementary-xfce/actions/24/tab-new.svg

<?xml version="1.0" encoding="UTF-8" standalone="no"?>
<svg
   xmlns:dc="http://purl.org/dc/elements/1.1/"
   xmlns:cc="http://creativecommons.org/ns#"
   xmlns:rdf="http://www.w3.org/1999/02/22-rdf-syntax-ns#"
   xmlns:svg="http://www.w3.org/2000/svg"
   xmlns="http://www.w3.org/2000/svg"
   xmlns:xlink="http://www.w3.org/1999/xlink"
   width="24"
   height="24"
   id="svg2"
   version="1.0">
  <defs
     id="defs4">
    <radialGradient
       xlink:href="#linearGradient5060"
       id="radialGradient10633"
       gradientUnits="userSpaceOnUse"
       gradientTransform="matrix(0.0144583,0,0,0.00922486,14.121724,14.196945)"
       cx="605.71429"
       cy="486.64789"
       fx="605.71429"
       fy="486.64789"
       r="117.14286" />
    <linearGradient
       id="linearGradient5060">
      <stop
         id="stop5062"
         offset="0"
         style="stop-color:black;stop-opacity:1;" />
      <stop
         id="stop5064"
         offset="1"
         style="stop-color:black;stop-opacity:0;" />
    </linearGradient>
    <radialGradient
       xlink:href="#linearGradient5060"
       id="radialGradient10631"
       gradientUnits="userSpaceOnUse"
       gradientTransform="matrix(-0.0144583,0,0,0.00922486,11.148621,14.196945)"
       cx="605.71429"
       cy="486.64789"
       fx="605.71429"
       fy="486.64789"
       r="117.14286" />
    <linearGradient
       id="linearGradient5048">
      <stop
         id="stop5050"
         offset="0"
         style="stop-color:black;stop-opacity:0;" />
      <stop
         style="stop-color:black;stop-opacity:1;"
         offset="0.5"
         id="stop5056" />
      <stop
         id="stop5052"
         offset="1"
         style="stop-color:black;stop-opacity:0;" />
    </linearGradient>
    <linearGradient
       xlink:href="#linearGradient5048"
       id="linearGradient10629"
       gradientUnits="userSpaceOnUse"
       gradientTransform="matrix(0.04224852,0,0,0.00922486,-2.6346488,14.196926)"
       x1="302.85715"
       y1="366.64789"
       x2="302.85715"
       y2="609.50507" />
    <linearGradient
       id="linearGradient259">
      <stop
         id="stop260"
         offset="0.0000000"
         style="stop-color:#fafafa;stop-opacity:1.0000000;" />
      <stop
         id="stop261"
         offset="1.0000000"
         style="stop-color:#bbbbbb;stop-opacity:1.0000000;" />
    </linearGradient>
    <linearGradient
       xlink:href="#linearGradient259"
       id="linearGradient5002"
       gradientUnits="userSpaceOnUse"
       gradientTransform="matrix(0.5114663,0,0,0.5173963,-0.2831826,-2.9719454)"
       x1="20.908833"
       y1="42.125"
       x2="20.908833"
       y2="17.249201" />
    <linearGradient
       id="linearGradient2200">
      <stop
         style="stop-color:#ffffff;stop-opacity:1;"
         offset="0"
         id="stop2202" />
      <stop
         style="stop-color:#ffffff;stop-opacity:0;"
         offset="1"
         id="stop2204" />
    </linearGradient>
    <linearGradient
       xlink:href="#linearGradient2200"
       id="linearGradient4999"
       gradientUnits="userSpaceOnUse"
       gradientTransform="matrix(0.4886024,0,0,0.3994216,0.2599271,1.2851346)"
       x1="26.538"
       y1="22.765282"
       x2="29.267735"
       y2="45.015282" />
    <linearGradient
       id="linearGradient2264">
      <stop
         id="stop3244-gr"
         style="stop-color:#cdf87e;stop-opacity:1"
         offset="0" />
      <stop
         id="stop3246-gr"
         style="stop-color:#a2e34f;stop-opacity:1"
         offset="0.26238" />
      <stop
         id="stop3248-gr"
         style="stop-color:#68b723;stop-opacity:1"
         offset="0.66093999" />
      <stop
         id="stop3250-gr"
         style="stop-color:#1d7e0d;stop-opacity:1"
         offset="1" />
    </linearGradient>
    <radialGradient
       gradientTransform="matrix(0,0.52544994,-0.5716256,0,46.193389,-21.123812)"
       gradientUnits="userSpaceOnUse"
       xlink:href="#linearGradient2264"
       id="radialGradient3900-3"
       fy="48.216358"
       fx="65.297462"
       r="31.000002"
       cy="48.216358"
       cx="65.297462" />
    <linearGradient
       gradientTransform="matrix(0.2817955,0,0,0.2800956,12.196562,12.014885)"
       gradientUnits="userSpaceOnUse"
       xlink:href="#linearGradient4154-0"
       id="linearGradient3030-13"
       y2="35.62291"
       x2="24.138529"
       y1="10.631441"
       x1="24.138529" />
    <linearGradient
       id="linearGradient4154-0">
      <stop
         offset="0"
         style="stop-color:#ffffff;stop-opacity:1"
         id="stop4156-1" />
      <stop
         offset="0.00000002"
         style="stop-color:#ffffff;stop-opacity:0.23529412"
         id="stop4158-6" />
      <stop
         offset="1"
         style="stop-color:#ffffff;stop-opacity:0.15686275"
         id="stop4160-3" />
      <stop
         offset="1"
         style="stop-color:#ffffff;stop-opacity:0.39215687"
         id="stop4162-9" />
    </linearGradient>
    <linearGradient
       gradientTransform="matrix(0.2817955,0,0,0.2800956,12.178741,12.02218)"
       gradientUnits="userSpaceOnUse"
       xlink:href="#linearGradient4333"
       id="linearGradient3030-1"
       y2="24.912279"
       x2="24.138529"
       y1="21.34207"
       x1="24.138529" />
    <linearGradient
       id="linearGradient4333">
      <stop
         id="stop4335"
         style="stop-color:#ffffff;stop-opacity:1"
         offset="0" />
      <stop
         id="stop4337"
         style="stop-color:#ffffff;stop-opacity:0.23529412"
         offset="0.00000019" />
      <stop
         id="stop4339"
         style="stop-color:#ffffff;stop-opacity:0.15686275"
         offset="1" />
      <stop
         id="stop4341"
         style="stop-color:#ffffff;stop-opacity:0.39215687"
         offset="1" />
    </linearGradient>
  </defs>
  <metadata
     id="metadata7">
    <rdf:RDF>
      <cc:Work
         rdf:about="">
        <dc:format>image/svg+xml</dc:format>
        <dc:type
           rdf:resource="http://purl.org/dc/dcmitype/StillImage" />
      </cc:Work>
    </rdf:RDF>
  </metadata>
  <g
     style="opacity:0.5"
     transform="matrix(1,0,0,1.339093,-0.6351739,-6.0401818)"
     id="g10624">
    <rect
       style="display:inline;overflow:visible;visibility:visible;opacity:0.40206185;fill:url(#linearGradient10629);fill-opacity:1;fill-rule:nonzero;stroke:none;stroke-width:1;stroke-linecap:round;stroke-linejoin:miter;stroke-miterlimit:4;stroke-dasharray:none;stroke-dashoffset:0;stroke-opacity:1;marker:none;marker-start:none;marker-mid:none;marker-end:none"
       id="rect2879"
       width="20.4"
       height="2.2403224"
       x="2.435174"
       y="17.579199" />
    <path
       id="path2881"
       d="m 2.435174,17.579297 c 0,0 0,2.240198 0,2.240198 -0.7445669,0.0042 -1.8,-0.501914 -1.8,-1.120243 0,-0.618328 0.8308804,-1.119955 1.8,-1.119955 z"
       style="display:inline;overflow:visible;visibility:visible;opacity:0.40206185;fill:url(#radialGradient10631);fill-opacity:1;fill-rule:nonzero;stroke:none;stroke-width:1;stroke-linecap:round;stroke-linejoin:miter;stroke-miterlimit:4;stroke-dasharray:none;stroke-dashoffset:0;stroke-opacity:1;marker:none;marker-start:none;marker-mid:none;marker-end:none" />
    <path
       id="path2883"
       d="m 22.835174,17.579297 c 0,0 0,2.240198 0,2.240198 0.744566,0.0042 1.8,-0.501914 1.8,-1.120243 0,-0.618328 -0.830881,-1.119955 -1.8,-1.119955 z"
       style="display:inline;overflow:visible;visibility:visible;opacity:0.40206185;fill:url(#radialGradient10633);fill-opacity:1;fill-rule:nonzero;stroke:none;stroke-width:1;stroke-linecap:round;stroke-linejoin:miter;stroke-miterlimit:4;stroke-dasharray:none;stroke-dashoffset:0;stroke-opacity:1;marker:none;marker-start:none;marker-mid:none;marker-end:none" />
  </g>
  <path
     id="rect1316"
     d="m 4.3164928,5.5893806 c -0.9822199,0 -1.7866109,0.8273696 -1.7866109,1.8316986 V 14.528372 H 0.77171655 c -0.15469934,0 -0.27171651,0.134448 -0.27171651,0.291035 v 3.389557 c 0,0.156588 0.11701717,0.291036 0.27171651,0.291036 H 23.212299 c 0.154699,0 0.287699,-0.134447 0.2877,-0.291036 v -3.389557 c 0,-0.156588 -0.133,-0.291035 -0.2877,-0.291035 H 21.495656 L 21.5,7.5000002 c 0,-1.458877 -0.613218,-2 -2,-2 z"
     style="fill:url(#linearGradient5002);fill-opacity:1;fill-rule:evenodd;stroke:#888a85;stroke-width:1.00000012;stroke-linecap:butt;stroke-linejoin:round;stroke-miterlimit:4;stroke-dasharray:none;stroke-dashoffset:0;stroke-opacity:1" />
  <path
     id="path1331"
     d="M 4.5978347,6.5249572 C 4.0324748,6.5249572 3.5,6.9098293 3.5,7.5384713 V 15.475044 H 1.5000002 l 0.045243,1.999999 H 22.500001 L 22.44374,15.475044 H 20.5 V 7.4750433 c -0.01965,-0.723569 -0.111914,-0.93822 -1,-0.93822 z"
     style="opacity:0.4;fill:none;fill-opacity:1;fill-rule:evenodd;stroke:url(#linearGradient4999);stroke-width:1;stroke-linecap:round;stroke-linejoin:miter;stroke-miterlimit:4;stroke-dasharray:none;stroke-dashoffset:0;stroke-opacity:1" />
  <g
     transform="translate(0.007286,-0.007286)"
     id="g4474">
    <path
       d="m 16.482179,16.507295 v -3 h 4 v 3 h 3 v 4 h -3 v 2.999991 h -4 v -2.999991 h -2.989465 v -4 z"
       id="path2262"
       style="color:#000000;display:inline;overflow:visible;visibility:visible;fill:url(#radialGradient3900-3);fill-opacity:1;fill-rule:nonzero;stroke:none;stroke-width:0.98542744;marker:none;enable-background:accumulate" />
    <path
       d="M 17.5,18.004404 V 14.5 h 2 V 18 m 0,1 v 3.5 h -2 V 19"
       id="path2272"
       style="display:inline;opacity:0.5;fill:none;stroke:url(#linearGradient3030-13);stroke-width:1;stroke-linecap:butt;stroke-linejoin:miter;stroke-miterlimit:4;stroke-dasharray:none;stroke-opacity:1" />
    <path
       d="m 16.482179,16.507295 v -3 h 4 v 3 h 3 v 4 h -3 v 2.999991 h -4 v -2.999991 h -2.989465 v -4 z"
       id="path2262-2"
       style="color:#000000;clip-rule:nonzero;display:inline;overflow:visible;visibility:visible;opacity:0.5;isolation:auto;mix-blend-mode:normal;color-interpolation:sRGB;color-interpolation-filters:linearRGB;solid-color:#000000;solid-opacity:1;fill:none;fill-opacity:1;fill-rule:nonzero;stroke:#0f5a00;stroke-width:1;stroke-linecap:round;stroke-linejoin:round;stroke-miterlimit:4;stroke-dasharray:none;stroke-dashoffset:0;stroke-opacity:1;marker:none;color-rendering:auto;image-rendering:auto;shape-rendering:auto;text-rendering:auto;enable-background:accumulate" />
    <path
       d="m 20,17.507295 2.482179,-0.0073 v 2 L 20,19.507295 m -3,0 -2.5,-0.0073 v -2 l 2.5,0.0073"
       id="path2272-2"
       style="display:inline;opacity:0.5;fill:none;stroke:url(#linearGradient3030-1);stroke-width:1;stroke-linecap:butt;stroke-linejoin:miter;stroke-miterlimit:4;stroke-dasharray:none;stroke-opacity:1" />
  </g>
</svg>

<?xml version="1.0" encoding="UTF-8" standalone="no"?>
<svg
   xmlns:dc="http://purl.org/dc/elements/1.1/"
   xmlns:cc="http://creativecommons.org/ns#"
   xmlns:rdf="http://www.w3.org/1999/02/22-rdf-syntax-ns#"
   xmlns:svg="http://www.w3.org/2000/svg"
   xmlns="http://www.w3.org/2000/svg"
   xmlns:xlink="http://www.w3.org/1999/xlink"
   width="24"
   height="24"
   id="svg2"
   version="1.0">
  <defs
     id="defs4">
    <radialGradient
       xlink:href="#linearGradient5060"
       id="radialGradient10633"
       gradientUnits="userSpaceOnUse"
       gradientTransform="matrix(1.4458305e-2,0,0,9.2248566e-3,14.121724,14.196945)"
       cx="605.71429"
       cy="486.64789"
       fx="605.71429"
       fy="486.64789"
       r="117.14286" />
    <linearGradient
       id="linearGradient5060">
      <stop
         id="stop5062"
         offset="0"
         style="stop-color:black;stop-opacity:1;" />
      <stop
         id="stop5064"
         offset="1"
         style="stop-color:black;stop-opacity:0;" />
    </linearGradient>
    <radialGradient
       xlink:href="#linearGradient5060"
       id="radialGradient10631"
       gradientUnits="userSpaceOnUse"
       gradientTransform="matrix(-1.4458302e-2,0,0,9.2248566e-3,11.148621,14.196945)"
       cx="605.71429"
       cy="486.64789"
       fx="605.71429"
       fy="486.64789"
       r="117.14286" />
    <linearGradient
       id="linearGradient5048">
      <stop
         id="stop5050"
         offset="0"
         style="stop-color:black;stop-opacity:0;" />
      <stop
         style="stop-color:black;stop-opacity:1;"
         offset="0.5"
         id="stop5056" />
      <stop
         id="stop5052"
         offset="1"
         style="stop-color:black;stop-opacity:0;" />
    </linearGradient>
    <linearGradient
       xlink:href="#linearGradient5048"
       id="linearGradient10629"
       gradientUnits="userSpaceOnUse"
       gradientTransform="matrix(4.2248521e-2,0,0,9.2248566e-3,-2.6346488,14.196926)"
       x1="302.85715"
       y1="366.64789"
       x2="302.85715"
       y2="609.50507" />
    <linearGradient
       id="linearGradient259">
      <stop
         id="stop260"
         offset="0.0000000"
         style="stop-color:#fafafa;stop-opacity:1.0000000;" />
      <stop
         id="stop261"
         offset="1.0000000"
         style="stop-color:#bbbbbb;stop-opacity:1.0000000;" />
    </linearGradient>
    <linearGradient
       xlink:href="#linearGradient259"
       id="linearGradient5002"
       gradientUnits="userSpaceOnUse"
       gradientTransform="matrix(0.5114663,0,0,0.5173963,-0.2831826,-2.9719454)"
       x1="20.908833"
       y1="42.125"
       x2="20.908833"
       y2="17.249201" />
    <linearGradient
       id="linearGradient2200">
      <stop
         style="stop-color:#ffffff;stop-opacity:1;"
         offset="0"
         id="stop2202" />
      <stop
         style="stop-color:#ffffff;stop-opacity:0;"
         offset="1"
         id="stop2204" />
    </linearGradient>
    <linearGradient
       xlink:href="#linearGradient2200"
       id="linearGradient4999"
       gradientUnits="userSpaceOnUse"
       gradientTransform="matrix(0.4886024,0,0,0.3994216,0.2599271,1.2851346)"
       x1="26.538"
       y1="22.765282"
       x2="29.267735"
       y2="45.015282" />
    <linearGradient
       id="linearGradient2264">
      <stop
         id="stop3244-gr"
         style="stop-color:#cdf87e;stop-opacity:1"
         offset="0" />
      <stop
         id="stop3246-gr"
         style="stop-color:#a2e34f;stop-opacity:1"
         offset="0.26238" />
      <stop
         id="stop3248-gr"
         style="stop-color:#68b723;stop-opacity:1"
         offset="0.66093999" />
      <stop
         id="stop3250-gr"
         style="stop-color:#1d7e0d;stop-opacity:1"
         offset="1" />
    </linearGradient>
    <linearGradient
       xlink:href="#linearGradient2264"
       id="linearGradient4996"
       gradientUnits="userSpaceOnUse"
       gradientTransform="matrix(0.4691323,0,0,0.4663025,7.68994,7.808471)"
       x1="24.103895"
       y1="15.168831"
       x2="24.103895"
       y2="32.485161" />
    <linearGradient
       id="linearGradient4222">
      <stop
         style="stop-color:#ffffff;stop-opacity:1;"
         offset="0"
         id="stop4224" />
      <stop
         style="stop-color:#ffffff;stop-opacity:0;"
         offset="1"
         id="stop4226" />
    </linearGradient>
    <linearGradient
       xlink:href="#linearGradient4222"
       id="linearGradient4993"
       gradientUnits="userSpaceOnUse"
       gradientTransform="matrix(0.2817955,0,0,0.2800956,12.18602,12.014894)"
       x1="24.138529"
       y1="8.6973467"
       x2="24.138529"
       y2="47.272728" />
  </defs>
  <metadata
     id="metadata7">
    <rdf:RDF>
      <cc:Work
         rdf:about="">
        <dc:format>image/svg+xml</dc:format>
        <dc:type
           rdf:resource="http://purl.org/dc/dcmitype/StillImage" />
      </cc:Work>
    </rdf:RDF>
  </metadata>
  <g
     id="layer1">
    <g
       id="g10624"
       transform="matrix(1,0,0,1.339093,-0.6351739,-6.0401818)"
       style="opacity:0.50000000000000000">
      <rect
         y="17.579199"
         x="2.435174"
         height="2.2403224"
         width="20.4"
         id="rect2879"
         style="opacity:0.40206185;fill:url(#linearGradient10629);fill-opacity:1;fill-rule:nonzero;stroke:none;stroke-width:1;stroke-linecap:round;stroke-linejoin:miter;marker:none;marker-start:none;marker-mid:none;marker-end:none;stroke-miterlimit:4;stroke-dasharray:none;stroke-dashoffset:0;stroke-opacity:1;visibility:visible;display:inline;overflow:visible" />
      <path
         style="opacity:0.40206185;fill:url(#radialGradient10631);fill-opacity:1;fill-rule:nonzero;stroke:none;stroke-width:1;stroke-linecap:round;stroke-linejoin:miter;marker:none;marker-start:none;marker-mid:none;marker-end:none;stroke-miterlimit:4;stroke-dasharray:none;stroke-dashoffset:0;stroke-opacity:1;visibility:visible;display:inline;overflow:visible"
         d="M 2.435174,17.579297 C 2.435174,17.579297 2.435174,19.819495 2.435174,19.819495 C 1.6906071,19.823713 0.635174,19.317581 0.635174,18.699252 C 0.635174,18.080924 1.4660544,17.579297 2.435174,17.579297 z"
         id="path2881" />
      <path
         style="opacity:0.40206185;fill:url(#radialGradient10633);fill-opacity:1;fill-rule:nonzero;stroke:none;stroke-width:1;stroke-linecap:round;stroke-linejoin:miter;marker:none;marker-start:none;marker-mid:none;marker-end:none;stroke-miterlimit:4;stroke-dasharray:none;stroke-dashoffset:0;stroke-opacity:1;visibility:visible;display:inline;overflow:visible"
         d="M 22.835174,17.579297 C 22.835174,17.579297 22.835174,19.819495 22.835174,19.819495 C 23.57974,19.823713 24.635174,19.317581 24.635174,18.699252 C 24.635174,18.080924 23.804293,17.579297 22.835174,17.579297 z"
         id="path2883" />
    </g>
    <path
       style="fill:url(#linearGradient5002);fill-opacity:1;fill-rule:evenodd;stroke:#888a85;stroke-width:1.00000011999999994;stroke-linecap:butt;stroke-linejoin:round;stroke-miterlimit:4;stroke-dasharray:none;stroke-dashoffset:0;stroke-opacity:1"
       d="M 4.3164928,5.5893806 C 3.3342729,5.5893806 2.5298819,6.4167502 2.5298819,7.4210792 L 2.5298819,14.528372 L 0.77171655,14.528372 C 0.61701721,14.528372 0.50000004,14.66282 0.50000004,14.819407 L 0.50000004,18.208964 C 0.50000004,18.365552 0.61701721,18.5 0.77171655,18.5 L 23.212299,18.5 C 23.366998,18.5 23.499998,18.365553 23.499999,18.208964 L 23.499999,14.819407 C 23.499999,14.662819 23.366999,14.528372 23.212299,14.528372 L 21.495656,14.528372 L 21.5,7.5000002 C 21.5,6.0411232 20.886782,5.5000002 19.5,5.5000002 L 4.3164928,5.5893806 z"
       id="rect1316" />
    <path
       style="opacity:0.40000000000000002;fill:none;fill-opacity:1;fill-rule:evenodd;stroke:url(#linearGradient4999);stroke-width:1;stroke-linecap:round;stroke-linejoin:miter;stroke-miterlimit:4;stroke-dasharray:none;stroke-dashoffset:0;stroke-opacity:1"
       d="M 4.5978347,6.5249572 C 4.0324748,6.5249572 3.5,6.9098293 3.5,7.5384713 L 3.5,15.475044 L 1.5000002,15.475044 L 1.5452432,17.475043 L 22.500001,17.475043 L 22.44374,15.475044 L 20.5,15.475044 L 20.5,7.4750433 C 20.480352,6.7514743 20.388086,6.5368233 19.5,6.5368233 L 4.5978347,6.5249572 z"
       id="path1331" />
    <path
       style="fill:url(#linearGradient4996);fill-opacity:1;fill-rule:evenodd;stroke:#699536;stroke-width:1;stroke-linecap:butt;stroke-linejoin:round;stroke-miterlimit:4;stroke-dasharray:none;stroke-opacity:1;display:inline"
       d="M 16.48946,16.500009 L 16.48946,13.500009 L 20.48946,13.500009 L 20.48946,16.500009 L 23.48946,16.500009 L 23.48946,20.500009 L 20.48946,20.500009 L 20.48946,23.5 L 16.48946,23.5 L 16.48946,20.500009 L 13.5,20.500009 L 13.5,16.500009 L 16.48946,16.500009 z"
       id="path7096" />
    <path
       style="fill:none;fill-opacity:1;fill-rule:evenodd;stroke:url(#linearGradient4993);stroke-width:1;stroke-linecap:butt;stroke-linejoin:miter;stroke-miterlimit:4;stroke-dasharray:none;stroke-opacity:1;display:inline;opacity:0.40000000000000002"
       d="M 17.48946,17.500009 L 17.48946,14.500009 L 19.48946,14.500009 L 19.48946,17.500009 L 22.48946,17.500009 L 22.48946,19.500009 L 19.48946,19.500009 L 19.48946,22.500009 L 17.48946,22.500009 L 17.48946,19.500009 L 14.48946,19.500009 L 14.48946,17.500009 L 17.48946,17.500009 z"
       id="path7098" />
  </g>
</svg>
